X:1
T: Merry Night at Tumble Brig
C:
R:Reel
Q: 232
K:Em
M:4/4
L:1/8
|:EB GB EE B2|FD AF DE FD|EB GB EE B2|FD AF BE E2|
EB GB EE B2|FD AF DE FD|EB, GE FD AF|GB AF EE E2|
ef ge bg fe|Bg fg af df|ef ge bg fe|Ba gf e2 e2|
ef ge bg fe|Bg fg af df|bf ge fd eF|GB AF EE E2:|
